X:1
T:大提琴练习曲_Book1_P3_No.7
T:大提琴练习曲_Book1_P3_No.7
L:1/8
Q:1/4=80
M:4/4
K:G
V:1 bass nm="大提琴" snm="Vc."
V:1
 (vG,F,E,D,) (uG,F,)!tenuto!vE,!tenuto!uD, | %1
 (vB,A,)!tenuto!G,!tenuto!F, (uE,D,)!tenuto!C,!tenuto!B,, | %2
 (D,C,B,,A,,) (D,C,)!tenuto!B,,!tenuto!A,, | %3
 (C,B,,)!tenuto!E,!tenuto!D, (F,G,)!tenuto!D,!tenuto!B,, | (G,,A,,B,,C,) (D,E,F,G,) | %5
 (E,F,)!tenuto!G,!tenuto!A, (B,C)!tenuto!B,!tenuto!A, | (G,F,E,D,) (G,F,E,D,) | %7
 (A,G,)!tenuto!F,!tenuto!E, (D,C,)!tenuto!B,,!tenuto!A,, | (G,,A,,B,,C,) (D,E,F,G,) | %9
 (G,F,)!tenuto!E,!tenuto!D, (D,C,)!tenuto!B,,!tenuto!A,, | (G,,A,,B,,C,) (D,E,F,G,) | %11
 (A,G,)!tenuto!F,!tenuto!E, (D,C,)!tenuto!B,,!tenuto!A,, | (G,,A,,B,,C,) (D,E,F,G,) | G,,2 z2 z4 |] %14

